static/logos/raycast-wordmark-color.svg

<svg width="100" height="26" viewBox="0 0 100 26" fill="none" xmlns="http://www.w3.org/2000/svg">
<g clip-path="url(#clip0_1_1353)">
<path fill-rule="evenodd" clip-rule="evenodd" d="M6.42525 16.6471V19.3285L0 12.9032L1.34159 11.5617L6.42525 16.6471ZM9.10672 19.3285H6.42525L12.8505 25.7538L14.192 24.4122L9.10672 19.3285ZM24.356 14.2448L25.6975 12.9032L12.8471 0.0527649L11.5089 1.39778L16.5926 6.48144H13.5204L9.97199 2.93985L8.6304 4.28144L10.8372 6.4883H9.29519V16.462H19.2689V14.9199L21.4758 17.1268L22.8173 15.7852L19.2689 12.2368V9.16462L24.356 14.2448ZM7.09519 5.81321L5.75017 7.15481L7.18943 8.59406L8.53102 7.25247L7.09519 5.81321ZM18.5065 17.2245L17.1648 18.566L18.6041 20.0053L19.9457 18.6638L18.5065 17.2245ZM4.21668 8.69002L2.87509 10.0316L6.42354 13.5801V10.8969L4.21668 8.69002ZM14.8603 19.3337H12.1788L15.7273 22.8821L17.0689 21.5405L14.8603 19.3337Z" fill="#FF5656"/>
<path d="M97.4351 19.3129C96.5698 19.3129 95.893 19.0782 95.4099 18.607C94.9267 18.1358 94.6851 17.4813 94.6851 16.652V11.5118H93.1328V9.58771H94.6937L94.9712 7.01761H96.7995V9.58771H99.1863V11.5153H96.7995V16.3728C96.7944 16.6383 96.8935 16.8954 97.0753 17.0889C97.1683 17.1879 97.2814 17.2655 97.407 17.3167C97.5328 17.3677 97.668 17.3912 97.8035 17.3854H99.1863V19.3129H97.4351Z" fill="black"/>
<path d="M88.1014 19.4946C86.9477 19.4946 86.0196 19.2194 85.3171 18.6688C84.6192 18.1231 84.1407 17.3446 83.9688 16.4756H86.263C86.3634 16.8097 86.5862 17.0935 86.8866 17.2706C87.255 17.4834 87.6763 17.5874 88.1014 17.5705C89.3248 17.5705 89.9399 17.2278 89.9399 16.5664C89.9399 16.2363 89.7474 15.9844 89.3625 15.8109C88.9151 15.6189 88.4471 15.4791 87.9678 15.3945C87.4229 15.29 86.8764 15.1546 86.3212 14.9901C85.7689 14.8269 85.2785 14.5009 84.9146 14.0546C84.5318 13.5976 84.3398 12.9968 84.3389 12.2521C84.3327 11.8609 84.4171 11.4733 84.5853 11.12C84.7536 10.7666 85.001 10.4569 85.3086 10.2148C85.9574 9.67341 86.8568 9.40326 88.0073 9.40441C89.1575 9.40555 90.0712 9.66255 90.7486 10.1754C91.4222 10.6846 91.8852 11.4237 92.0491 12.2521H89.7514C89.5064 11.6439 88.929 11.3338 88.014 11.332C87.0323 11.332 86.5422 11.6387 86.5422 12.2521C86.5439 12.3927 86.5832 12.5303 86.6557 12.6508C86.7282 12.7713 86.8316 12.8702 86.9552 12.9374C87.2698 13.1273 87.6194 13.2519 87.9832 13.3041C88.4384 13.3816 88.8886 13.4857 89.3317 13.616C89.7911 13.7474 90.2415 13.9087 90.6801 14.0991C91.1078 14.2925 91.4694 14.607 91.7201 15.0039C92.011 15.4699 92.156 16.0123 92.1365 16.5613C92.1457 16.9701 92.0571 17.3752 91.8784 17.7429C91.6996 18.1106 91.4356 18.4304 91.1084 18.6757C90.4253 19.2205 89.4231 19.4934 88.1014 19.4946Z" fill="black"/>
<path d="M81.2582 10.3774C80.5512 9.74115 79.5608 9.42303 78.2872 9.42303C77.2718 9.42303 76.4202 9.6966 75.7325 10.2438C75.0537 10.7773 74.5745 11.524 74.372 12.3632H76.5412C76.6515 12.0454 76.8619 11.7718 77.141 11.5835C77.4796 11.3566 77.8816 11.2431 78.2889 11.2598C78.8851 11.2598 79.3546 11.414 79.699 11.7189C79.8738 11.8816 80.0105 12.0807 80.0993 12.3024C80.1882 12.524 80.2271 12.7623 80.213 13.0005V13.4649H77.7286C76.5864 13.4649 75.6891 13.7534 75.0369 14.3302C74.725 14.5963 74.476 14.9284 74.3078 15.3023C74.1394 15.676 74.0561 16.0826 74.0636 16.4925C74.0521 16.8979 74.1273 17.301 74.2839 17.675C74.4404 18.0491 74.6749 18.3855 74.9717 18.6616C75.5748 19.2329 76.3745 19.5184 77.3705 19.5184C77.9875 19.5325 78.5982 19.3905 79.1456 19.1054C79.5858 18.8902 79.9582 18.5575 80.2216 18.1442H80.3107L80.4906 19.3435H82.3257V13.004C82.3222 11.8915 81.9664 11.0159 81.2582 10.3774ZM80.2147 15.5724C80.2275 15.8609 80.1765 16.1486 80.0655 16.4152C79.9544 16.6817 79.7861 16.9204 79.5722 17.1144C79.1462 17.4926 78.5647 17.6822 77.8279 17.6833C77.2917 17.6833 76.8805 17.5599 76.5977 17.3201C76.4604 17.2085 76.3504 17.067 76.2762 16.9062C76.2018 16.7456 76.1654 16.5701 76.1695 16.3931C76.1695 15.5364 76.7297 15.1115 77.8279 15.1115H80.2147V15.5724Z" fill="black"/>
<path d="M68.5572 19.5149C67.1649 19.5149 66.0522 19.0684 65.2195 18.175C64.3868 17.2818 63.9699 16.0459 63.9688 14.4672C63.9688 12.892 64.384 11.6573 65.2143 10.7629C66.0449 9.86852 67.1591 9.42189 68.5572 9.42304C69.6927 9.42304 70.6339 9.72574 71.3809 10.3311C72.1138 10.9159 72.636 11.7239 72.8681 12.6321H70.7641C70.5581 12.2298 70.2407 11.8949 69.8497 11.6677C69.4587 11.4405 69.0108 11.3304 68.559 11.3505C68.2162 11.3384 67.8751 11.4054 67.5625 11.5466C67.2498 11.6876 66.9739 11.8991 66.7565 12.1644C66.2996 12.7092 66.0711 13.4769 66.0711 14.4672C66.0711 15.4576 66.2996 16.2252 66.7565 16.77C66.9736 17.036 67.2493 17.2482 67.562 17.39C67.8747 17.5316 68.2158 17.5993 68.559 17.5873C69.0108 17.6068 69.4588 17.4961 69.8495 17.2686C70.2404 17.0412 70.5578 16.7064 70.7641 16.304H72.8681C72.6365 17.2132 72.1143 18.0218 71.3809 18.6068C70.6351 19.2123 69.6939 19.5149 68.5572 19.5149Z" fill="black"/>
<path d="M56.1461 23.0089L57.6145 19.3355L53.6719 9.61021H55.9662L58.627 16.4929H58.7162L61.3805 9.61021H63.6748L58.3495 23.0089H56.1461Z" fill="black"/>
<path d="M51.688 10.3774C50.9809 9.74115 49.9906 9.42303 48.7171 9.42303C47.701 9.42303 46.8477 9.69548 46.1623 10.2438C45.4831 10.7769 45.0038 11.5238 44.8019 12.3632H46.971C47.0805 12.0449 47.291 11.7711 47.5708 11.5835C47.9092 11.3561 48.3113 11.2427 48.7188 11.2598C49.315 11.2598 49.785 11.4129 50.1289 11.7189C50.3039 11.8813 50.4409 12.0804 50.5299 12.302C50.6187 12.5238 50.6574 12.7623 50.6429 13.0005V13.4649H48.1585C47.0162 13.4649 46.1189 13.7534 45.4667 14.3302C45.1546 14.5961 44.9053 14.9281 44.7371 15.302C44.5688 15.6759 44.4856 16.0826 44.4935 16.4925C44.4811 16.8977 44.5557 17.3006 44.7116 17.6748C44.8676 18.0489 45.1017 18.3854 45.3981 18.6616C46.0013 19.2329 46.8008 19.5184 47.797 19.5184C48.4139 19.5325 49.0245 19.3905 49.572 19.1054C50.0122 18.8902 50.3846 18.5575 50.648 18.1442H50.7372L50.9171 19.3435H52.7487V13.004C52.7487 11.8915 52.395 11.0159 51.688 10.3774ZM50.6411 15.5724C50.6542 15.8609 50.6033 16.1487 50.4922 16.4153C50.3811 16.6818 50.2126 16.9206 49.9987 17.1144C49.5737 17.4938 48.9922 17.6833 48.2544 17.6833C47.7181 17.6833 47.3052 17.5616 47.0242 17.3201C46.8871 17.2084 46.7771 17.0668 46.7029 16.9061C46.6287 16.7455 46.592 16.57 46.5959 16.3931C46.6016 15.5398 47.1544 15.1127 48.2544 15.1115H50.6411V15.5724Z" fill="black"/>
<path d="M39.7818 14.4677C40.1087 14.3803 40.4249 14.2561 40.7241 14.0976C41.073 13.9063 41.3996 13.6764 41.6973 13.4123C42.0571 13.0809 42.3345 12.6702 42.5078 12.2129C42.7163 11.6756 42.8192 11.1031 42.811 10.5269C42.811 9.3035 42.4204 8.32344 41.6391 7.58668C40.8578 6.84991 39.8411 6.48268 38.5892 6.48497H33.2656V19.3355H35.5599V14.5671H37.3007L40.6076 19.3355H43.1777L39.7818 14.4677ZM35.5599 12.5349V8.50849H38.4024C39.0535 8.50849 39.5676 8.68497 39.9444 9.03792C40.3214 9.39089 40.5111 9.88549 40.5134 10.5217C40.5134 11.158 40.3226 11.6538 39.9411 12.0089C39.5216 12.3742 38.9768 12.5628 38.4213 12.5349H35.5599Z" fill="black"/>
</g>
<defs>
<clipPath id="clip0_1_1353">
<rect width="100" height="25.8065" fill="white"/>
</clipPath>
</defs>
</svg>

<svg xmlns="http://www.w3.org/2000/svg" width="246.154" height="64" fill="none" viewBox="0 0 100 26"><g clip-path="url(#a)"><path fill="#FF5656" fill-rule="evenodd" d="M6.425 16.647v2.681L0 12.903l1.342-1.341 5.083 5.085Zm2.682 2.681H6.425l6.426 6.426 1.341-1.342-5.085-5.084Zm15.249-5.083 1.341-1.342L12.848.053 11.51 1.398l5.084 5.083H13.52L9.972 2.94 8.63 4.28l2.207 2.207H9.295v9.974h9.974V14.92l2.207 2.207 1.341-1.342-3.548-3.548V9.165l5.087 5.08ZM7.096 5.813 5.75 7.155l1.44 1.44L8.53 7.251 7.095 5.813Zm11.41 11.412-1.341 1.341 1.44 1.44 1.34-1.342-1.439-1.44ZM4.216 8.69l-1.34 1.342 3.548 3.548v-2.683L4.217 8.69ZM14.86 19.334H12.18l3.548 3.548 1.342-1.341-2.209-2.207Z" clip-rule="evenodd"/><path fill="#000" d="M97.435 19.313c-.865 0-1.542-.235-2.025-.706-.483-.471-.725-1.126-.725-1.955v-5.14h-1.552V9.588h1.56l.278-2.57H96.8v2.57h2.387v1.927H96.8v4.858c-.005.265.094.522.276.716a.944.944 0 0 0 .728.296h1.383v1.928h-1.75ZM88.101 19.495c-1.153 0-2.081-.276-2.784-.826a3.694 3.694 0 0 1-1.348-2.193h2.294c.1.334.323.617.624.795.368.212.79.316 1.214.3 1.224 0 1.839-.343 1.839-1.005 0-.33-.193-.582-.578-.755a6.324 6.324 0 0 0-1.394-.416 17.178 17.178 0 0 1-1.647-.405 2.861 2.861 0 0 1-1.406-.935c-.383-.457-.575-1.058-.576-1.803a2.54 2.54 0 0 1 .97-2.037c.648-.542 1.548-.812 2.698-.81 1.15 0 2.064.258 2.742.77a3.44 3.44 0 0 1 1.3 2.077h-2.298c-.245-.608-.822-.918-1.737-.92-.982 0-1.472.307-1.472.92a.792.792 0 0 0 .413.685c.315.19.664.315 1.028.367.455.078.906.182 1.349.312.46.131.91.293 1.348.483a2.4 2.4 0 0 1 1.04.905c.291.466.436 1.008.416 1.557a2.571 2.571 0 0 1-1.028 2.115c-.683.545-1.685.817-3.007.819ZM81.258 10.377c-.707-.636-1.697-.954-2.97-.954-1.016 0-1.868.274-2.555.82a3.842 3.842 0 0 0-1.361 2.12h2.17c.11-.318.32-.591.599-.78a1.92 1.92 0 0 1 1.148-.323c.596 0 1.066.154 1.41.459A1.62 1.62 0 0 1 80.213 13v.464h-2.484c-1.143 0-2.04.288-2.692.865a2.774 2.774 0 0 0-.973 2.162 2.852 2.852 0 0 0 .908 2.17c.603.57 1.403.856 2.399.856a3.662 3.662 0 0 0 1.775-.413c.44-.215.812-.547 1.076-.96h.089l.18 1.198h1.835v-6.339c-.004-1.112-.36-1.988-1.068-2.627Zm-1.043 5.195a1.966 1.966 0 0 1-.643 1.542c-.426.379-1.007.568-1.744.57-.536 0-.948-.124-1.23-.364a1.16 1.16 0 0 1-.428-.927c0-.857.56-1.282 1.658-1.282h2.387v.461ZM68.557 19.515c-1.392 0-2.505-.447-3.338-1.34-.832-.893-1.25-2.13-1.25-3.708 0-1.575.415-2.81 1.245-3.704.83-.894 1.945-1.341 3.343-1.34 1.136 0 2.077.303 2.824.908a4.309 4.309 0 0 1 1.487 2.301h-2.104a2.359 2.359 0 0 0-2.205-1.281 2.23 2.23 0 0 0-1.802.813c-.457.545-.686 1.313-.686 2.303s.229 1.758.686 2.303a2.227 2.227 0 0 0 1.802.817 2.362 2.362 0 0 0 2.205-1.283h2.104a4.305 4.305 0 0 1-1.487 2.303c-.746.605-1.687.908-2.824.908ZM56.146 23.009l1.468-3.674-3.942-9.725h2.294l2.661 6.883h.09L61.38 9.61h2.295L58.35 23.01h-2.204ZM51.688 10.377c-.707-.636-1.697-.954-2.97-.954-1.017 0-1.87.272-2.556.82a3.834 3.834 0 0 0-1.36 2.12h2.169c.11-.318.32-.592.6-.78.338-.227.74-.34 1.148-.323.596 0 1.066.153 1.41.459A1.618 1.618 0 0 1 50.643 13v.464h-2.485c-1.142 0-2.04.288-2.691.865a2.77 2.77 0 0 0-.974 2.162 2.847 2.847 0 0 0 .905 2.17c.603.57 1.403.856 2.399.856a3.662 3.662 0 0 0 1.775-.413c.44-.215.813-.547 1.076-.96h.09l.18 1.198h1.83v-6.339c0-1.112-.353-1.988-1.06-2.627Zm-1.047 5.195A1.96 1.96 0 0 1 50 17.114c-.425.38-1.007.57-1.745.57-.536 0-.949-.122-1.23-.364a1.163 1.163 0 0 1-.428-.927c.006-.853.558-1.28 1.658-1.282h2.387v.461ZM39.782 14.468c.327-.088.643-.212.942-.37.349-.192.676-.422.973-.686.36-.331.637-.742.81-1.2.21-.536.312-1.109.304-1.685 0-1.223-.39-2.204-1.172-2.94-.781-.737-1.798-1.104-3.05-1.102h-5.323v12.85h2.294v-4.768h1.74l3.308 4.768h2.57l-3.396-4.867Zm-4.222-1.933V8.508h2.842c.651 0 1.166.177 1.542.53.377.353.567.847.57 1.484 0 .636-.191 1.132-.573 1.487a2.15 2.15 0 0 1-1.52.526H35.56Z"/></g><defs><clipPath id="a"><path fill="#fff" d="M0 0h100v25.806H0z"/></clipPath></defs></svg>
